X:5
T:Wantage (1)
T:Rochdale Coconut Dance
M:4/4
L:1/8
K:G
P:A
EFGF E2B2|EFGF E2B2|c2Ac B2G2|AG FE D4|
EFGF E2B2|EFGF E2B2|c2Ac B2G2| A2 F2 G4:|
P:B
|:G2BB G2B2|AGFG A2dd|G2BB G2B2|AGFE D2d2|
G2BB G2B2|AGFG A2dd|BdcB AcBA|G2F2G2F2:|

